!!!COM: Haydn, Franz Joseph
!!!OTL: String Quartet in C Major
!!!OPS: Opus 74
!!!ONM: No. 1
!!!OMD: Andantino grazioso
!!!OMV: 2
!!!SCT: H III:72
!!!SCA: Thematisch-bibliographisches Werkevererzeichnis (A. van Hoboken)
!!!YOR: Trautwein Edition
!!!ENC: Frances Bennion
!!!CDT: 1732/3/31/-1809/5/31/
!!!CNT: Oesterreich
!!!YEC: Copyright (c) 1994, 2000 Center for Computer Assisted Research in the Humanities
!!!YEM: Rights to all derivative editions reserved.
!!!YEM: Refer to licensing agreement for further details.
!!!YEN: United States of America
**kern	**kern	**kern	**kern
*k[f#]	*k[f#]	*k[f#]	*k[f#]
*G:	*G:	*G:	*G:
*clefF4	*clefC3	*clefF	*clefF
*M3/8	*M3/8	*M3/8	*M3/8
8GG 8G	8D	8B	8r
8r	8r	8r	8d
8r	8r	8r	8B
=2	=2	=2	=2
8r	8r	8r	8G
8r	8r	8r	8b
8G	8B	8d	8g
=3	=3	=3	=3
8r	8r	8r	8g
8A	8c	8d	8f#
8A	8c	8d	8f#
=4	=4	=4	=4
8A	8c	8d	8f#
8r	8r	8r	8r
8r	8r	8r	8r
=5	=5	=5	=5
8D	8F#	8A	8c
8r	8c	8r	8r
8r	8A	8r	8r
=6	=6	=6	=6
8r	8F#	8r	8r
8r	8r	8cc	8ee
8F#	8d	8a	8cc
=7	=7	=7	=7
8r	8r	8f#	8a#
8G	8d	8g	8b
8G	8d	8g	8b
=8	=8	=8	=8
8G	8d	8g	8b
8r	8r	8r	8r
8r	8r	8r	8r
=9	=9	=9	=9
8F	8f	8r	8r
8D	8d	8g	8gg
8BB	8B	8g	8gg
=10	=10	=10	=10
8G	8g	8r	8r
8E	8e	8g	8gg
8C	8c	8g	8gg
=11	=11	=11	=11
8B-	8b-	8r	8r
8G	8g	8g	8gg
8C#	8c#	8g	8gg
=12	=12	=12	=12
4.D	8d	4.g	8bb
.	8B	.	8gg
.	8B	.	8dd
=13	=13	=13	=13
4.DD	8A	4.f#	8cc
.	8c	.	8a
.	8c	.	8f#
=14	=14	=14	=14
8G	16B	8f#	8ff#
.	16d	.	.
8G	16B	8g	8gg
.	16d	.	.
8G	16B	8r	8r
.	16d	.	.
=15	=15	=15	=15
8G	16B	8a#	8aa#
.	16d	.	.
8G	16B	8b	8bb
.	16d	.	.
8G	16B	8r	8r
.	16d	.	.
=16	=16	=16	=16
8G	16B	4dd	4ddd
.	16d	.	.
8G	16B	.	.
.	16d	.	.
8G	16B	32cc	32ccc
.	.	32b	32bb
.	16d	32a	32aa
.	.	32g	32gg
=17	=17	=17	=17
8A	16c	8g	8gg
.	16d	.	.
8A	16c	8f#	8ff#
.	16d	.	.
8A	16c	8f#	8ff#
.	16d	.	.
=18	=18	=18	=18
8F#	16A	8e-	8ee-
.	16c	.	.
8F#	16A	8d	8dd
.	16c	.	.
8F#	16A	8r	8r
.	16c	.	.
=19	=19	=19	=19
8F#	16A	8g#	8gg#
.	16c	.	.
8F#	16A	8a	8aa
.	16c	.	.
8F#	16A	8r	8r
.	16c	.	.
=20	=20	=20	=20
8F#	16A	4ee	4eee
.	16c	.	.
8F#	16A	.	.
.	16c	.	.
8F#	16A	32dd	32ddd
.	.	32cc	32ccc
.	16d	32b	32bb
.	.	32a	32aa
=21	=21	=21	=21
8G	16B	8cc	8ccc
.	16d	.	.
8G	16B	8b	8bb
.	16d	.	.
8G	16B	8b	8bb
.	16d	.	.
=22	=22	=22	=22
8G	8B	16g	4bb
.	.	16b	.
8r	8r	16g	.
.	.	16b	.
8r	8g	16g	32aa
.	.	.	32gg
.	.	16b	32ff#
.	.	.	32ee
=23	=23	=23	=23
4.r	8f#	16a	8ee
.	.	16b	.
.	8f#	16a	8dd#
.	.	16b	.
.	8f#	16a	8dd#
.	.	16b	.
=24	=24	=24	=24
4.r	8e	16g	4bb
.	.	16b	.
.	8e	16g	.
.	.	16b	.
.	8e	16g	32aa
.	.	.	32gg
.	.	16b	32ff#
.	.	.	32ee
=25	=25	=25	=25
4.r	8e	16g	8dd
.	.	16a	.
.	8e	16g	8cc#
.	.	16a	.
.	8e	16g	8cc#
.	.	16a	.
=26	=26	=26	=26
4.r	8f#	8.a	16ee
.	.	.	16dd
.	8c#	.	16ff#
.	.	16ee	16ee
.	8d	16ee	16gg
.	.	16dd	16ff#
=27	=27	=27	=27
4.r	4.A	8dd	8ff#
.	.	8cc#	8ee
.	.	8cc#	8ee
=28	=28	=28	=28
8G	8g	8r	8r
8E	8e	8a	8aa
8C#	8c#	8a	8aa
=29	=29	=29	=29
8A	8a	8r	8r
8F#	8f#	8a	8aa
8D	8d	8a	8aa
=30	=30	=30	=30
8c	8cc	8r	8r
8B	8b	8a	8aa
8d#	8b	8ff#	8aa
=31	=31	=31	=31
8e	8b	8ee	8gg#
8c#	8a	8ee	8gg
8d	8a	8dd	8ff#
=32	=32	=32	=32
8G	8g	8b	8ee
8A	8f#	8a	8dd
8A	8e	8g	8cc#
=33	=33	=33	=33
8f#	8a	8dd	8ddd
8e	8g	8cc#	8ccc#
8d	8f#	8b	8bb
=34	=34	=34	=34
8c#	8e	8a#	8aa#
8d	8f#	8b	8bb
8B	8d	8g#	8gg#
=35	=35	=35	=35
8c#	8e	8a	8aa
8A#	8c#	8g	8gg
8B	8d	8f#	8ff#
=36	=36	=36	=36
4.G	4B	8e	8ee
.	.	8g	8gg
.	8g	8b	8bb
=37	=37	=37	=37
4.A	4f#	4a	4dd
.	8c#	8g	8ee
=38	=38	=38	=38
4D	16d	4.ff#	4.ddd
.	16dd	.	.
.	16d	.	.
.	16dd	.	.
8r	16d	.	.
.	16dd	.	.
=39	=39	=39	=39
4.r	16d	16aa	16ccc#
.	16dd	16gg	16bb
.	16d	8gg	8bb
.	16dd	.	.
.	16d	8r	8r
.	16dd	.	.
=40	=40	=40	=40
4.G	16d	4.B	4.r
.	16dd	.	.
.	16d	.	.
.	16dd	.	.
.	16d	.	.
.	16dd	.	.
=41	=41	=41	=41
16E#	16d	16G#	4.r
16F#	16dd	16A	.
8F#	16d	8A	.
.	16dd	.	.
8r	16d	8r	.
.	16dd	.	.
=42	=42	=42	=42
4.r	16d	4.ff#	4.ddd
.	16dd	.	.
.	16d	.	.
.	16dd	.	.
.	16d	.	.
.	16dd	.	.
=43	=43	=43	=43
4.r	16d	16aa	16ccc#
.	16dd	16gg	16bb
.	16d	8gg	8bb
.	16dd	.	.
.	16d	8r	8r
.	16dd	.	.
=44	=44	=44	=44
4.G	16d	4.B	4.r
.	16dd	.	.
.	16d	.	.
.	16dd	.	.
.	16d	.	.
.	16dd	.	.
=45	=45	=45	=45
16E#	16d	16G#	4.r
16F#	16dd	16A	.
8F#	16d	8A	.
.	16dd	.	.
8r	16d	8r	.
.	16dd	.	.
=46	=46	=46	=46
4.r	16d	16ee	16ddd
.	16dd	16gg	16ccc#
.	16d	8gg	8ccc#
.	16dd	.	.
.	16d	8r	8r
.	16dd	.	.
=47	=47	=47	=47
4.r	16d	16gg	16eee
.	16dd	16ff#	16ddd
.	16d	8ff#	8ddd
.	16dd	.	.
.	16d	8r	8r
.	16dd	.	.
=48	=48	=48	=48
8c	16d	4.r	4.r
.	16dd	.	.
8A	16d	.	.
.	16dd	.	.
8F#	16d	.	.
.	16dd	.	.
=49	=49	=49	=49
4.G	4d	8bb	8ddd
.	.	8gg	8bb
.	8e	16b	16gg
.	.	16g	16ee
=50	=50	=50	=50
4A	8f#	4f#	4dd
.	8a	.	.
8AA	8c#	8g	8ee
=51	=51	=51	=51
4D	16d	4f#	16dd
.	16A	.	16a
.	16f#	.	16ff#
.	16A	.	16a
8r	16a	8a	16aa
.	16A	.	16a
=52	=52	=52	=52
4.r	16g	8g	16gg
.	16A	.	16a
.	16e	8e	16ee
.	16A	.	16a
.	16c#	8c#	16cc#
.	16A	.	16a
=53	=53	=53	=53
16D	8d	16d	16dd
16AA	.	16A	16a
16F#	8F#	16f#	16ff#
16AA	.	16A	16a
16A	8A	16a	16aa
16AA	.	16A	16a
=54	=54	=54	=54
16G	8G	16g	16gg
16AA	.	16A	16a
16E	8E	16e	16ee
16AA	.	16A	16a
16C#	8C#	16c#	16cc#
16AA	.	16A	16a
=55	=55	=55	=55
16D	16D	8d	16dd
16AA	16A	.	16a
16FF#	16F#	16f#	16f#
16AA	16A	16a	16a
16D	16d	16dd	16dd
16AA	16A	16a	16a
=56	=56	=56	=56
8D	8d	8f#	8dd
8DD	8F#	8A	8d
8DD	8F#	8A	8d
=57	=57	=57	=57
8DD	8F#	8A	8d
8r	8r	8r	8r
8r	8r	8r	8r
=58	=58	=58	=58
8c	8cc	8r	8r
8A	8a	8d	8dd
8F#	8f#	8d	8dd
=59	=59	=59	=59
8B	8b	8r	8r
8G	8g	8d	8dd
8D	8d	8d	8dd
=60	=60	=60	=60
8c	8cc	8r	8r
8A	8a	8d	8dd
8F#	8f#	8d	8dd
=61	=61	=61	=61
8B-	8b-	8r	8r
8G	8g	8d	8dd
8D	8d	8d	8dd
=62	=62	=62	=62
8A-	4.f 4.B-	8d	8r
8F	.	8a-	8dd 8d
16D	.	8a-	8f 8dd
16BB-	.	.	.
=63	=63	=63	=63
4E-	4g 4B-	4g	8G 8ee- 8e-
.	.	.	8b-
8r	8r	8r	8g
=64	=64	=64	=64
8r	8r	8r	8e-
8r	8r	8r	8gg
8e-	8g	8b-	8ee-
=65	=65	=65	=65
8r	8r	8r	8ee-
8f	8a-	8b-	8dd
8f	8a-	8b-	8dd
=66	=66	=66	=66
8f	8a-	8b-	8dd
8r	8r	8r	8r
8r	8r	8r	8r
=67	=67	=67	=67
8BB-	8F	8d 8A-	8r
8r	8r	8r	8a-
8r	8r	8r	8f
=68	=68	=68	=68
8r	8r	8r	8d
8r	8r	8aa-	8ccc
8d	8b-	8ff	8aa-
=69	=69	=69	=69
8r	8r	8dd	8ff#
8e-	8b-	8ee-	8gg
8e-	8b-	8ee-	8gg
=70	=70	=70	=70
8e-	8b-	8ee-	8gg
8r	8r	8e-	8ee-
8r	8r	8e-	8ee-
=71	=71	=71	=71
4.r	8d-	8r	8r
.	8B-	8e-	8ee-
.	8G	8e-	8ee-
=72	=72	=72	=72
8c	4.r	8r	8r
8A-	.	8e-	8ee-
8E-	.	8e-	8ee-
=73	=73	=73	=73
4.r	8B-	8r	8r
.	8G	8e	8ee
.	8C	8e	8ee
=74	=74	=74	=74
8c	4.r	8r	8r
8A-	.	8f	8ff
8F	.	8f	8ff
=75	=75	=75	=75
4.r	8e-	8r	8r
.	8c	8f#	8ff#
.	8A	8f#	8ff#
=76	=76	=76	=76
8d	4.r	8r	8r
8B-	.	8g	8gg
8G	.	8g	8gg
=77	=77	=77	=77
4.r	8f	8r	8r
.	8d	8g#	8gg#
.	8B	8g#	8gg#
=78	=78	=78	=78
8e	4.r	8r	8r
8c	.	8a	8aa
8A	.	8a	8aa
=79	=79	=79	=79
4.F	8A	8d#	8ccc
.	8c	8a	8dd#
.	8A	8a	8dd#
=80	=80	=80	=80
4E	16e	4g#	4ee
.	16ee	.	.
.	16e	.	.
.	16ee	.	.
8r	16e	8r	8r
.	16ee	.	.
=81	=81	=81	=81
4.r	16e	4.ccc	4.eee
.	16ee	.	.
.	16e	.	.
.	16ee	.	.
.	16e	.	.
.	16ee	.	.
=82	=82	=82	=82
4.r	16e	16aa#	16ccc#
.	16ee	16bb	16ddd
.	16e	8bb	8ddd
.	16ee	.	.
.	16e	8r	8r
.	16ee	.	.
=83	=83	=83	=83
4.B	16e	4.d	4.r
.	16ee	.	.
.	16e	.	.
.	16ee	.	.
.	16e	.	.
.	16ee	.	.
=84	=84	=84	=84
16G#	16e	16B	4.r
16A	16ee	16c	.
8A	16e	8c	.
.	16ee	.	.
8r	16e-	8r	.
.	16ee-	.	.
=85	=85	=85	=85
4.r	16d	4.bb	4.ddd
.	16dd	.	.
.	16d	.	.
.	16dd	.	.
.	16d	.	.
.	16dd	.	.
=86	=86	=86	=86
4.r	16d	16gg#	16bb
.	16dd	16aa	16ccc
.	16d	8aa	8ccc
.	16dd	.	.
.	16d	8r	8r
.	16dd	.	.
=87	=87	=87	=87
4.A	16d	4.c	4.r
.	16dd	.	.
.	16d	.	.
.	16dd	.	.
.	16d	.	.
.	16dd	.	.
=88	=88	=88	=88
16F#	16d	16A#	4.r
16G	16dd	16B	.
8G	16d	8B	.
.	16dd	.	.
8r	16d	8r	.
.	16dd	.	.
=89	=89	=89	=89
4.r	16d	16ee	16ddd
.	16dd	16gg	16ccc#
.	16d	8gg	8ccc#
.	16dd	.	.
.	16d	8r	8r
.	16dd	.	.
=90	=90	=90	=90
4.r	16d	16gg	16eee
.	16dd	16ff#	16ddd
.	16d	8ff#	8ddd
.	16dd	.	.
.	16d	8r	8r
.	16dd	.	.
=91	=91	=91	=91
4.r	16d	16ff#	16eee
.	16cc	16ff#	16ddd
.	16d	8ff#	8ddd
.	16cc	.	.
.	16d	8r	8r
.	16cc	.	.
=92	=92	=92	=92
4.r	16d	16ff#	16eee
.	16b	16gg	16ddd
.	16d	8gg	8ddd
.	16b	.	.
.	16d	8r	8r
.	16b	.	.
=93	=93	=93	=93
4.r	16d	16ff#	16ddd
.	16f#	16aa	16ccc
.	16d	8aa	8ccc
.	16f#	.	.
.	16d	8r	8r
.	16f#	.	.
=94	=94	=94	=94
8GG 8G	8g 8G	8gg 8b 8d	8bb 8dd 8g
8r	8r	8d	8r
8r	8r	8B	8r
=95	=95	=95	=95
8r	8r	8G	4.r
8r	8r	8b	.
8G	8d 8B	8g	.
=96	=96	=96	=96
8r	8r	8g	8r
8A	8d 8c	8f#	16dd
.	.	.	32ee
.	.	.	32ff#
8A	8d 8c	8f#	32gg
.	.	.	32aa
.	.	.	32bb
.	.	.	32ccc
=97	=97	=97	=97
8A	8d 8c	8f#	16ddd
.	.	.	16ddd
8r	8r	8r	16ddd
.	.	.	16ddd
8r	8r	8r	16ddd
.	.	.	16ddd
=98	=98	=98	=98
8D 8A	8F#	8c	8ddd
8r	8c	8r	8r
8r	8A	8r	8r
=99	=99	=99	=99
8r	8F#	8r	4.r
8r	8cc	8ee	.
8F#	8a	8cc	.
=100	=100	=100	=100
8r	8f#	8a#	8r
8GG	8g	8b	16g
.	.	.	32a
.	.	.	32b
8GG	8g	8b	32cc
.	.	.	32dd
.	.	.	32ee
.	.	.	32ff#
=101	=101	=101	=101
8GG	8g	8b	16gg
.	.	.	16gg
8r	8r	8r	16gg
.	.	.	16gg
8r	8r	8r	16gg
.	.	.	16gg
=102	=102	=102	=102
8F	8f	32g	32gg
.	.	32a	32aa
.	.	32g	32gg
.	.	32f#	32ff#
8D	8d	16g	16gg
.	.	16g	16gg
8BB	8B	16g	16gg
.	.	16g	16gg
=103	=103	=103	=103
8G	8g	32g	32gg
.	.	32a	32aa
.	.	32g	32gg
.	.	32f#	32ff#
8E	8e	16g	16gg
.	.	16g	16gg
8C	8c	16g	16gg
.	.	16g	16gg
=104	=104	=104	=104
8B-	8b-	32g	32gg
.	.	32a	32aa
.	.	32g	32gg
.	.	32f#	32ff#
8G	8g	16g	16gg
.	.	16g	16gg
8C#	8c#	16g	16gg
.	.	16g	16gg
=105	=105	=105	=105
4.D	4.d	24b	24bb
.	.	24a	24aa
.	.	24g	24gg
.	.	24b	24bb
.	.	24a	24aa
.	.	24g	24gg
.	.	24f#	24ff#
.	.	24e	24ee
.	.	24d	24dd
=106	=106	=106	=106
4.DD	4F#	24c	24cc
.	.	24B	24b
.	.	24A	24a
.	.	24g	24g
.	.	24f#	24f#
.	.	24e	24e
.	8c	24d	24d
.	.	24e	24e
.	.	24f#	24f#
=107	=107	=107	=107
8GG	16B	8f#	8ff#
.	16d	.	.
8G	16B	8g	8gg
.	16d	.	.
8G	16B	8r	8r
.	16d	.	.
=108	=108	=108	=108
8G	16B	8a#	8aa#
.	16d	.	.
8G	16B	8b	8bb
.	16d	.	.
8G	16B	8r	8r
.	16d	.	.
=109	=109	=109	=109
8G	16B	4dd	4ddd
.	16d	.	.
8G	16B	.	.
.	16d	.	.
8G	16B	32cc	32ccc
.	.	32b	32bb
.	16d	32a	32aa
.	.	32g	32gg
=110	=110	=110	=110
8A	16c	8g	8gg
.	16d	.	.
8A	16c	8f#	8ff#
.	16d	.	.
8A	16c	8f#	8ff#
.	16d	.	.
=111	=111	=111	=111
8F#	16A	8e-	8ee-
.	16c	.	.
8F#	16A	8d	8dd
.	16c	.	.
8F#	16A	8r	8r
.	16c	.	.
=112	=112	=112	=112
8F#	16A	8g#	8gg#
.	16c	.	.
8F#	16A	8a	8aa
.	16c	.	.
8F#	16A	8r	8r
.	16c	.	.
=113	=113	=113	=113
8F#	16A	4ee	4eee
.	16c	.	.
8F#	16A	.	.
.	16c	.	.
8F#	16A	32dd	32ddd
.	.	32cc	32ccc
.	16c	32b	32bb
.	.	32a	32aa
=114	=114	=114	=114
8G	16B	8cc	8ccc
.	16d	.	.
8g	16B	8b	8bb
.	16d	.	.
8g	16B	8b	8bb
.	16d	.	.
=115	=115	=115	=115
8b	8dd	8gg	8ggg
8a	8cc	8ff#	8fff#
8g	8b	8ee	8eee
=116	=116	=116	=116
8f#	8a	8dd#	8ddd#
8g	8b	8ee	8eee
8e	8g	8cc#	8ccc#
=117	=117	=117	=117
8f#	8a	8dd	8ddd
8d#	8f#	8cc	8ccc
8e	8g	8b	8bb
=118	=118	=118	=118
4.c	4e	8a	8aa
.	.	8cc	8ccc
.	8cc	8ee	8eee
=119	=119	=119	=119
4.d	4b	4dd	4gg
.	8f#	8cc	8aa
=120	=120	=120	=120
4G	4.b	16G	4.gg
.	.	16g	.
.	.	16G	.
.	.	16g	.
8r	.	16G	.
.	.	16g	.
=121	=121	=121	=121
4.r	16dd	16G	16ff#
.	16cc	16g	16ee
.	8cc	16G	8ee
.	.	16g	.
.	8r	16G	8r
.	.	16g	.
=122	=122	=122	=122
4.c	4.e	16G	4.r
.	.	16g	.
.	.	16G	.
.	.	16g	.
.	.	16G	.
.	.	16g	.
=123	=123	=123	=123
16A#	16c#	16G	4.r
16B	16d	16g	.
8B	8d	16G	.
.	.	16g	.
8r	8r	16G	.
.	.	16g	.
=124	=124	=124	=124
4.r	4.b	16G	4.gg
.	.	16g	.
.	.	16G	.
.	.	16g	.
.	.	16G	.
.	.	16g	.
=125	=125	=125	=125
4.r	16dd	16G	16ff#
.	16cc	16g	16ee
.	8cc	16G	8ee
.	.	16g	.
.	8r	16G	8r
.	.	16g	.
=126	=126	=126	=126
4.C	4.E	16G	4.r
.	.	16g	.
.	.	16G	.
.	.	16g	.
.	.	16G	.
.	.	16g	.
=127	=127	=127	=127
16AA#	16C#	16G	4.r
16BB	16D	16g	.
8BB	8D	16G	.
.	.	16g	.
8r	8r	16G	.
.	.	16g	.
=128	=128	=128	=128
4.r	16a	16G	16gg
.	16cc	16g	16ff#
.	8cc	16G	8ff#
.	.	16g	.
.	8r	16G	8r
.	.	16g	.
=129	=129	=129	=129
4.r	16cc	16G	16aa
.	16b	16g	16gg
.	8b	16G	8gg
.	.	16g	.
.	8r	16G	8r
.	.	16g	.
=130	=130	=130	=130
8F	4.r	16G	4.r
.	.	16g	.
8D	.	16G	.
.	.	16g	.
8BB	.	16G	.
.	.	16g	.
=131	=131	=131	=131
4.C	4.e 4.G	8ee	8gg
.	.	8cc	8ee
.	.	8a	16cc
.	.	.	16a
=132	=132	=132	=132
4D	4B	4g	4g
8DD	8c	8f#	8a
=133	=133	=133	=133
8GG	8B	4g	4g
8g	8r	.	.
8e	8r	8r	8r
=134	=134	=134	=134
[4.c	8r	4.r	4.r
.	8cc	.	.
.	8a	.	.
=135	=135	=135	=135
4.c_	[4.f#	8r	4.r
.	.	8ee	.
.	.	8cc	.
=136	=136	=136	=136
4.c_	4.f#_	[4.a	8r
.	.	.	8aa
.	.	.	8ff#
=137	=137	=137	=137
8c]	8f#]	8a]	8dd
8B	8g	8b	8ee
8A	8d	8cc	8ff#
=138	=138	=138	=138
4.G	4.d	4.b	8gg
.	.	.	8dd
.	.	.	8b
=139	=139	=139	=139
4.C	4g	8cc	8ee
.	.	8e	8cc
.	8e	8c	8a
=140	=140	=140	=140
4D	4d	4B	4g
8DD	8F#	8c	8a
=141	=141	=141	=141
8GG	4G	4B	4g
16g	.	.	.
16f#	.	.	.
16g	8r	8r	8r
16e	.	.	.
=142	=142	=142	=142
[4.c	8r	4.r	4.r
.	16cc	.	.
.	16b	.	.
.	16cc	.	.
.	16a	.	.
=143	=143	=143	=143
4.c_	[4.f#	8r	4.r
.	.	16ee	.
.	.	16dd#	.
.	.	16ee	.
.	.	16cc	.
=144	=144	=144	=144
4.c_	4.f#_	[4.a	8r
.	.	.	16aa
.	.	.	16gg#
.	.	.	16aa
.	.	.	16ff#
=145	=145	=145	=145
8c]	8f#]	8a]	8dd#
8c	8f#	8a	8dd#
8c	8f#	8a	8dd#
=146	=146	=146	=146
8c	8f#	8a	8dd#
8BBB#	8f#	8g#	8dd#
8BBB#	8f#	8g#	8dd#
=147	=147	=147	=147
4.BBB#	4.f#	[4.g#	4.dd#
=148	=148	=148	=148
4.CC#	4.e	4.g#]	4.ee
=149	=149	=149	=149
8C#	8E	8G#	8r
8r	8r	8r	8g#
8r	8r	8r	8e
=150	=150	=150	=150
8C#	8E	8G#	8c#
8r	8r	8r	8cc#
8r	8r	8r	8g#
=151	=151	=151	=151
8C#	8E	8G#	8e
8r	8r	8r	8ee
8r	8r	8r	8cc#
=152	=152	=152	=152
8C#	8E	8A	8a
8r	8r	8r	8ee
8r	8r	8r	8cc#
=153	=153	=153	=153
4.C#	16E	8B-	8g
.	16G	.	.
.	8B-	8g	8ee
.	8B-	8g	8ee
=154	=154	=154	=154
4.D	4.B 4.g	4.g 4.b	8d 8dd
.	.	.	8b
.	.	.	8g
=155	=155	=155	=155
4.DD	4c	4f# 4A	8cc
.	.	.	8a
.	8A	8c	8f#
=156	=156	=156	=156
4GG	16G	16B	8g
.	16B	16d	.
.	16G	16B	8d
.	16B	16d	.
8r	16G	16B	8d
.	16B	16d	.
=157	=157	=157	=157
4G	16G	16B	4b
.	16B	16d	.
.	16G	16B	.
.	16B	16d	.
8r	16G	16B	32a
.	.	.	32g
.	16B	16d	32f#
.	.	.	32e
=158	=158	=158	=158
4F#	16A	16c	8d
.	16c	16d	.
.	16A	16c	8d
.	16c	16d	.
8r	16A	16c	8d
.	16c	16d	.
=159	=159	=159	=159
4.FF#	16A	16c	[12..cc
.	16c	16d	.
.	16A	16c	.
.	.	.	96cc]
.	.	.	32b
.	16c	16d	32a
.	.	.	32g
.	16A	16c	32f#
.	.	.	32e
.	16c	16d	32d
.	.	.	32c
=160	=160	=160	=160
4GG	16G	16B	8B
.	16b	16dd	.
.	16g	16b	8dd
.	16b	16dd	.
8r	16g	16b	8dd
.	16b	16dd	.
=161	=161	=161	=161
4G	16g	16b	4bb
.	16b	16dd	.
.	16g	16b	.
.	16b	16dd	.
8r	16g	16b	32aa
.	.	.	32gg
.	16b	16dd	32ff#
.	.	.	32ee
=162	=162	=162	=162
4F#	16a	16cc	8dd
.	16cc	16dd	.
.	16a	16cc	8dd
.	16cc	16dd	.
8r	16a	16cc	8dd
.	16cc	16dd	.
=163	=163	=163	=163
4.f#	16a	16cc	[12..ccc
.	16cc	16dd	.
.	16a	16cc	.
.	.	.	96ccc]
.	.	.	32bb
.	16cc	16dd	32aa
.	.	.	32gg
.	16a	16cc	32ff#
.	.	.	32ee
.	16cc	16dd	32dd
.	.	.	32cc
=164	=164	=164	=164
8g	8b 8d	8b	8b
8r	8r	8r	8ddd
8r	8r	8r	8ddd
=165	=165	=165	=165
4.B	4f	4g#	4ddd
.	8d	8ff	32ccc
.	.	.	32bb
.	.	.	32aa
.	.	.	32gg#
=166	=166	=166	=166
4c	4c	16ee	16aa
.	.	16cc	16ccc
.	.	8a	8eee
8r	8r	8r	8r
=167	=167	=167	=167
8D	8A	8r	8r
8r	8r	8c	8f#
8r	8r	8r	8r
=168	=168	=168	=168
4GG	16G	8G	16g
.	16D	.	16d
.	16B	8B	16b
.	16D	.	16d
8r	16d	8d	16dd
.	16D	.	16d
=169	=169	=169	=169
4.r	16c	8c	16cc
.	16D	.	16d
.	16A	8A	16a
.	16D	.	16d
.	16F#	8f#	16f#
.	16D	.	16d
=170	=170	=170	=170
16G	16G	16g	16g
16D	16D	16d	16d
16B	16B	16b	16b
16D	16D	16d	16d
16d	16d	16dd	16dd
16D	16D	16d	16d
=171	=171	=171	=171
16c	16c	16cc	16cc
16D	16D	16d	16d
16A	16A	16a	16a
16D	16D	16d	16d
16F#	16F#	16f#	16f#
16D	16D	16d	16d
=172	=172	=172	=172
16G	16G	16g	16g
16D	16d	16d	16d
16BB	16B	16B	16B
16D	16d	16d	16d
16G	16g	16g	16g
16D	16d	16d	16d
=173	=173	=173	=173
8G	8B	8g	8g
8GG	8D	8B	8B
8GG	8D	8B	8B
=174	=174	=174	=174
8GG	8D	8B	8B
8r	8r	8r	8r
8r	8r	8r	8r
==	==	==	==
*-	*-	*-	*-
!!!RWG1: This file contains only pitch and duration data.
!!!RWG2: Transposing instruments are not transposed.
!!!RWG3: Spines may have incompatible meters.
!!!RWG4: Durations of rests and tied notes may be interpreted.
!!!RWG: Key is interpreted using the Humdrum key tool.
!!!GTL: 6 Quartetti ("Apponyi")
!!!AFT: stage1
!!!END: 1997/04/15
!!!KEY: 794542528
!!!EMD: Converted from MuseData to Humdrum Dec 16, 2000, by Andreas Kornstaedt using muse2kern.
!!!EMD: Manual editing by Craig Sapp, Nov 2001
